X: 17978
T: Hugh Kelly
R: jig
M: 6/8
K: Dmajor
D2D D2E|F2G A2F|A2B c2d|e2d cBA|fgf {f}e2d|d2c B2A|
B2c d2B|{B}A2G F2E|D2d ded|{c}d2zz2D|D2D D2E|F2G A2F|
A2B c2d|e2d cBA|f2f e2d|d2c B2A|B2c d2B|{B}A2G F2E|
D2zd2z|D2zd2z|f2e e2d|d2c {c}B2A|B2c d2B|A2G F2E|
D2d ded|d2zz3|D2d d2z|D2d d2z|f2e e2d|d2c {c}B2A|
B2c d2B|A2G F2E|D2d dec|d3z3||

